X:1
T:Title
%%score { ( 1 3 ) | ( 2 4 ) }
L:1/8
M:6/4
K:C
V:1 treble nm="Grand Piano"
V:3 treble 
V:2 bass 
V:4 bass 
V:1
 z6 z4[Q:1/4=108] C>D | E3 D E2 F3 E F2 | G6 E4 E2 | G3 F E2[K:bass] [G,CE]4 [^F,CD]2 | %4
[M:5/4] [B,D]2- [B,D]2- [B,D]6 |[M:1/4][K:treble] D>E |[M:6/4] F3 E F2 D3 E F2 | G6 E4 C>C | %8
[M:13/8] D3 z [A,D]2 B,2- [B,F]3 E2 |[M:5/4] C2- C2- C6 |[M:1/4] [Ec]>[Fd] | %11
[M:6/4] [Ge]3 [Fd] [Ec]2 [_EB]4 A2 | [G,E]6 E4 c2 | c3 d e2 [^Fd]4 A2 | %14
[M:5/4] [FBd]2- [FBd]2- [FBd]6 |[M:1/4] c>d |[M:6/4] [Ge]3 [Fd] [Ec]2 [_EB]4 A2 | [G,E]6 E4 E2 | %18
 E3 D C2 [B,D]4 _E2 |[M:5/4] [^G,B,E]2- [G,B,E]2- [G,B,E]6 |[M:1/4] C>D |[M:6/4] E3 D E2 F3 E F2 | %22
 G6 E4 E2 | G3 F E2[K:bass] [G,CE]4 [^F,CD]2 |[M:5/4] [B,D]2- [B,D]2- [B,D]6 | %25
[M:1/4][K:treble] D>E |[M:6/4] F3 E F2 D3 E F2 | G6 E4 C>C |[M:13/8] D3 z [A,D]2 B,2- [B,F]3 E2 | %29
[M:9/4] C12 z6 |] %30
V:2
 z6 z4 E,>F, | [C,G,C]4 [C,G,]2 [D,G,B,]4 [D,G,B,]2 | [E,G,C]6 [C,G,C]4 [C,G,C]2 | %3
 [E,G,C]3 [D,G,C] [C,G,C]2 A,,4 D,2 |[M:5/4] G,,3 B,, D,2 G,4 |[M:1/4] A,->[E,A,^C] | %6
[M:6/4] .[D,D]6 .[G,B,]6 | [E,C]6 [C,G,]4 [A,,E,A,]2 |[M:13/8] z z2 D F,,2 z2 A,3 [G,B,]2 | %9
[M:5/4] [C,E,]2- [C,E,]2- [C,E,]6 |[M:1/4] [C,G,]2 |[M:6/4] [C,C]4 [C,G,]2 z4 _E2 | %12
 C,3 E, A,2 .G,6 | E3 ^F [A,CG]2 z4 F2 |[M:5/4][K:bass] G,,3 B,, D,2 G,4 |[M:1/4] E>F | %16
[M:6/4] [C,C]4 [C,G,]2 z4 _E2 | C,3 E, A,2 .G,6 | C3 B, A,2 z4 A,2 |[M:5/4] E,,3 ^G,, B,,2 E,4 | %20
[M:1/4] E,>F, |[M:6/4] [C,G,C]4 [C,G,]2 [D,G,B,]4 [D,G,B,]2 | [E,G,C]6 [C,G,C]4 [C,G,C]2 | %23
 [E,G,C]3 [D,G,C] [C,G,C]2 A,,4 D,2 |[M:5/4] G,,3 B,, D,2 G,4 |[M:1/4] A,->[E,A,^C] | %26
[M:6/4] .[D,D]6 .[G,B,]6 | [E,C]6 [C,G,]4 [A,,E,A,]2 |[M:13/8] z z2 D F,,2 z2 A,3 [G,B,]2 | %29
[M:9/4] [C,E,]12 z6 |] %30
V:3
 x12 | x12 | x12 | x6[K:bass] x6 |[M:5/4] G,6 z4 |[M:1/4][K:treble] x2 |[M:6/4] x12 | x12 | %8
[M:13/8] [A,C]- [A,C]3 z2 .[F,D]3 z z z2 |[M:5/4] x10 |[M:1/4] x2 |[M:6/4] x12 | x12 | x12 | %14
[M:5/4] x10 |[M:1/4] x2 |[M:6/4] x12 | x12 | x12 |[M:5/4] x10 |[M:1/4] x2 |[M:6/4] x12 | x12 | %23
 x6[K:bass] x6 |[M:5/4] G,6 z4 |[M:1/4][K:treble] x2 |[M:6/4] x12 | x12 | %28
[M:13/8] [A,C]- [A,C]3 z2 .[F,D]3 z z z2 |[M:9/4] x18 |] %30
V:4
 x12 | x12 | x12 | x12 |[M:5/4] x10 |[M:1/4] F,3/2 z/ | %6
[M:6/4] A,3- [^C,A,] [D,A,D]2 F,3 E, [D,G,B,]2 | x12 |[M:13/8] F,,- F,,3 z2 G,,-G,,-G,,- G,,3 z | %9
[M:5/4] x10 |[M:1/4] x2 |[M:6/4] z6 [C,^F,]6 | x12 | .[A,C]6 [D,C]6 |[M:5/4][K:bass] x10 | %15
[M:1/4] x2 |[M:6/4] z6 [C,^F,]6 | x12 | z6 F,6 |[M:5/4] x10 |[M:1/4] x2 |[M:6/4] x12 | x12 | x12 | %24
[M:5/4] x10 |[M:1/4] F,3/2 z/ |[M:6/4] A,3- [^C,A,] [D,A,D]2 F,3 E, [D,G,B,]2 | x12 | %28
[M:13/8] F,,- F,,3 z2 G,,-G,,-G,,- G,,3 z |[M:9/4] x18 |] %30

